X:1
T:Title
%%score { 1 | 2 }
L:1/8
M:6/8
K:E
V:1 treble nm="Grand Piano"
V:2 bass 
V:1
 z3 z2[Q:1/4=100] E | G2 G G2 E | [EG]2 [DF] [DF]2 [DF] | [DF]3 [DF][EG][FA] |[M:5/8] [FA]3 G2 | %5
[M:1/8] E |[M:3/4] G2 G G2 E | [EG]2 [DF] [DF]2 [DB] | [DB]3 [DF] [EG][FA] | G3 E3 |[M:1/8] B | %11
[M:3/4] [Ec]2 [CA] [Ec]2 [Ee] | B2 G B2 G | A2 G c2 B | B2 G [DF]3 |[M:1/8] E |[M:3/4] G2 G G2 E | %17
 [EG]2 [DF] [DF]2 [DB] | [DB]3 [DF] [EG][FA] | G3 E3 |] %20
V:2
 z3 z2 [E,G,] | [E,B,E]2 [E,B,E] [E,B,E]2 [E,G,] | [B,,B,]2 [B,,B,] [B,,B,]2 [B,,B,] | %3
 [B,,B,]3 [B,,B,][B,,B,][B,,B,] |[M:5/8] [E,B,]3 [E,B,E]2 |[M:1/8] [E,G,] | %6
[M:3/4] [E,B,E]2 [E,B,E] [E,B,E]2 [E,G,] | [B,,B,]2 [B,,B,] [B,,B,]2 [B,,F,] | %8
 [B,,F,]3 [B,,B,] [B,,B,][B,,B,] | [E,B,E]3 [E,G,]3 |[M:1/8] [E,G,E] | %11
[M:3/4] [A,,A,]2 [A,,E,] [A,,A,]2 [C,A,] | [E,G,E]2 [E,B,E] [E,G,E]2 [E,B,E] | %13
 [E,B,F]2 [E,B,E] [A,E]2 [G,B,E] | [G,B,E]2 [E,B,E] [B,,B,]3 |[M:1/8] [E,G,] | %16
[M:3/4] [E,B,E]2 [E,B,E] [E,B,E]2 [E,G,] | [B,,B,]2 [B,,B,] [B,,B,]2 [B,,F,] | %18
 [B,,F,]3 [B,,B,] [B,,B,][B,,B,] | [E,B,E]3 [E,G,]3 |] %20

